X: 30082
T: Oho! Oho! I've Found You Out
R: jig
M: 6/8
K: Gmajor
G2 G ABA|c2 A F2 D|G>AG B2 c|d2 g d2 c|
B2 c d2 e|=f2 d B2 G|d>ed cBA|G3 G2||
g2 d B2 G|c2 A F2 D|g2 d B2c|e2 g d2 c|
B2 c d2 e|=f2 d B2 G|d>ed cBA|G3 G2||

